ion/ear-sharp.svg

<svg viewBox="0 0 512 512" xmlns="http://www.w3.org/2000/svg"><path d="M380.48 68.09C347.09 34.5 302.88 16 256 16 159 16 80 95 80 192v206.57l0 0c-.02 25.62 10.03 50.22 28 68.49v0c17.79 18.47 42.34 28.92 68 28.94 19.93 0 41.06-7.69 62.8-22.87v0c9.28-6.47 17.95-13.79 25.88-21.86C327.37 390.16 432 288.06 432 192c0-46.49-18.29-90.49-51.52-123.91ZM368 200h-32v-16c0-39.7-35.89-72-80-72s-80 32.3-80 72v30.41c27.5-7.84 59.89-6.62 64.26-6.41v0c26.5.24 47.8 21.92 47.56 48.43 -.09 9.85-3.22 19.44-8.95 27.46 -.3.41-.61.81-.95 1.2 -16.55 19-36 45.49-38.46 55l-4.07 15.47 -30.94-8.14 4.07-15.47c5.51-20.94 36.93-58.2 44.66-67.15h-.001c4.86-7.38 2.83-17.31-4.55-22.17 -2.62-1.73-5.69-2.65-8.83-2.65h-.88c-10.67-.58-42.66-.25-62.12 8l-.82.35v71.65h-32v-136c0-57.35 50.24-104 112-104s112 46.65 112 104Z"/></svg>

<svg xmlns="http://www.w3.org/2000/svg" width="512" height="512" viewBox="0 0 512 512"><path d="M380.48,68.09C347.09,34.5,302.88,16,256,16,159,16,80,95,80,192V398.57a97.59,97.59,0,0,0,28,68.49A94.49,94.49,0,0,0,176,496c19.93,0,41.06-7.69,62.8-22.87a181.46,181.46,0,0,0,25.88-21.86C327.37,390.16,432,288.06,432,192,432,145.51,413.71,101.51,380.48,68.09ZM368,200H336V184c0-39.7-35.89-72-80-72s-80,32.3-80,72v30.41c27.5-7.84,59.89-6.62,64.26-6.41a48,48,0,0,1,38.62,75.9c-.3.41-.61.81-.95,1.2-16.55,19-36,45.49-38.46,55l-4.07,15.47-30.94-8.14,4.07-15.47c5.51-20.94,36.93-58.2,44.66-67.15A16,16,0,0,0,239.82,240l-.88,0c-10.67-.58-42.66-.25-62.12,8l-.82.35V320H144V184c0-57.35,50.24-104,112-104s112,46.65,112,104Z"/></svg>
